public/images/map-pointer.svg

<svg width="36" height="66" viewBox="0 0 36 66" fill="none" xmlns="http://www.w3.org/2000/svg">
<path d="M35.5 18.2609C35.5 20.7586 35.3409 22.6131 34.8709 24.5758C34.3991 26.5459 33.6097 28.6442 32.3264 31.6279C31.6043 33.3068 30.7273 35.2625 29.6673 37.6263C27.0422 43.48 23.2951 51.836 18 64.6858C12.7049 51.836 8.95779 43.4801 6.33275 37.6263C5.27276 35.2625 4.39572 33.3068 3.6736 31.6279C2.39029 28.6442 1.60088 26.5459 1.12911 24.5758C0.659132 22.6131 0.5 20.7586 0.5 18.2609C0.5 8.445 8.34178 0.5 18 0.5C27.6582 0.5 35.5 8.445 35.5 18.2609Z" fill="#D56062" stroke="#C65658"/>
<ellipse cx="18" cy="18.2609" rx="15.4286" ry="15.6522" fill="white"/>
<path d="M28.6941 19.6565C28.4604 19.7151 28.2677 19.6321 28.112 19.4528C28.0795 19.4155 28.0513 19.3737 28.025 19.3315C27.9176 19.1591 27.7656 19.0438 27.5768 18.9819C27.3706 18.9142 27.1626 18.8522 26.9537 18.7934C26.8582 18.7665 26.7632 18.7396 26.6773 18.6896C26.5117 18.5934 26.4719 18.4344 26.5706 18.2685C26.6539 18.1285 26.7821 18.0477 26.9306 17.9959C27.2246 17.8934 27.5219 17.9005 27.8282 17.9723C28.3118 18.0454 28.6823 18.3241 28.9959 18.6941C29.1069 18.8251 29.1872 18.9735 29.1771 19.1567C29.1609 19.4511 28.9065 19.6031 28.6941 19.6565V19.6565ZM26.638 22.3118C26.0344 23.3577 25.22 24.2703 24.2804 25.0161C22.0743 26.7673 19.1918 27.5649 16.427 27.0261C14.7706 26.7033 13.1977 25.9481 11.8673 24.8669C10.4602 23.7233 9.44784 22.1764 8.836 20.4639C8.78787 20.329 8.74131 20.1849 8.77045 20.0445C8.9354 19.2507 10.2643 19.9448 10.6821 20.0807C14.2294 21.2335 18.2714 21.0836 21.9394 20.7608C22.8582 20.68 23.809 20.484 24.7039 20.194C25.1635 20.0451 25.6151 19.8707 26.0565 19.6731C26.4352 19.5036 26.9309 19.1047 27.3597 19.3381C28.111 19.7469 26.9192 21.8247 26.638 22.3118V22.3118ZM8.1505 19.7735C8.11077 19.8031 8.07209 19.8356 8.02867 19.8585C7.82312 19.9669 7.60057 19.87 7.53265 19.6445C7.49984 19.5357 7.50729 19.4268 7.5207 19.3714C7.58406 19.0579 7.72672 18.8491 7.89964 18.66C8.05909 18.4855 8.24847 18.3415 8.4619 18.2507C8.82012 18.0984 9.19697 18.0174 9.58909 18.0807C9.77533 18.1108 9.93695 18.1895 10.0371 18.3661C10.1341 18.5372 10.1229 18.7045 10.0135 18.86C9.88183 19.0473 9.69642 19.1582 9.47469 19.2033C9.37799 19.223 9.27991 19.2358 9.18214 19.2493C8.91224 19.2867 8.6686 19.3898 8.4481 19.5502C8.34781 19.6231 8.24995 19.6995 8.1505 19.7735V19.7735ZM11.7124 13.272C11.8532 13.0151 12.1727 12.9225 12.426 13.0655L12.498 13.1061C12.6541 13.1941 12.8052 13.2926 12.9597 13.3736L13.1939 13.4764L13.3097 13.5289L13.428 13.5604C13.5066 13.5807 13.5843 13.6038 13.6614 13.6271C13.7393 13.6351 13.8165 13.6444 13.8935 13.6549C13.9707 13.6728 14.0466 13.6589 14.1224 13.6584L14.2359 13.6558C14.2737 13.6537 14.3103 13.6412 14.3476 13.6356C14.6444 13.5889 14.9403 13.4804 15.2206 13.3026C15.3579 13.21 15.4971 13.113 15.6236 12.9961C15.6887 12.9398 15.7493 12.8789 15.8088 12.8169C15.8649 12.7586 15.9319 12.6845 15.9677 12.6434L16.0106 12.5941C16.1782 12.4009 16.464 12.3543 16.6855 12.496C16.9312 12.6533 17.0047 12.9828 16.8497 13.232C16.7706 13.3592 16.7107 13.4445 16.6357 13.5415C16.5621 13.6331 16.4863 13.723 16.4048 13.8074C16.2454 13.9795 16.0671 14.1366 15.8747 14.2795C15.49 14.563 15.0217 14.7796 14.5192 14.8428C14.4567 14.8511 14.3946 14.8637 14.3318 14.8662L14.1429 14.8666C14.0174 14.8641 13.8904 14.8715 13.7691 14.8449L13.4026 14.7825C13.2867 14.7471 13.1723 14.7076 13.0583 14.6674L12.8883 14.6061L12.7318 14.5254L12.4209 14.3616C12.2278 14.2367 12.0496 14.0968 11.8664 13.9642C11.6514 13.8091 11.5812 13.5114 11.7124 13.272V13.272ZM20.3812 12.61C20.6178 12.4596 20.9297 12.5321 21.078 12.7721L21.1173 12.8358C21.2123 12.9894 21.2985 13.151 21.3964 13.2994L21.5589 13.504L21.6399 13.6063L21.7326 13.6911L21.9158 13.8614L22.1175 13.9947C22.1807 14.0467 22.2572 14.0695 22.3275 14.1043L22.434 14.1545C22.47 14.1699 22.5094 14.1761 22.5467 14.1878C22.8427 14.275 23.1717 14.3134 23.4927 14.2154C23.6514 14.1654 23.815 14.1426 23.9797 14.0993C24.0626 14.0806 24.1445 14.0585 24.2279 14.0376C24.3066 14.0176 24.4021 13.9905 24.4611 13.9822L24.6029 13.9623C24.775 13.9387 24.9544 14.0067 25.0679 14.1564C25.2364 14.379 25.1952 14.6982 24.9757 14.8692C24.8585 14.9605 24.7708 15.0196 24.6642 15.0802C24.5613 15.1376 24.4553 15.1898 24.3456 15.2317C24.1279 15.3199 23.8961 15.383 23.6565 15.3968C23.5371 15.4064 23.4146 15.3975 23.2956 15.402C23.1752 15.4005 23.0531 15.391 22.9323 15.3864C22.6898 15.36 22.446 15.3177 22.2128 15.2314C22.1545 15.2108 22.0944 15.1952 22.0381 15.1698L21.8718 15.0874C21.7625 15.0301 21.6474 14.9813 21.5519 14.9044L21.2557 14.689L20.9995 14.4375L20.874 14.3101L20.7684 14.1708L20.5577 13.8923C20.4332 13.7004 20.3277 13.5006 20.2139 13.3042C20.0763 13.066 20.1491 12.7576 20.3812 12.61V12.61ZM31.2179 15.2781C30.8252 13.5658 30.1328 12.0432 29.1409 10.7113C28.1482 9.38018 26.9165 8.26715 25.4451 7.37405C23.9731 6.48056 22.3352 5.8544 20.5302 5.49535C18.7563 5.14246 17.014 5.09619 15.3037 5.35661C13.5924 5.61654 12.0378 6.17526 10.6391 7.03062C9.24045 7.88693 8.04008 9.03296 7.03981 10.4683C6.0386 11.904 5.34881 13.6019 4.97012 15.5612C4.59126 17.5211 4.59637 19.3652 4.98594 21.094C5.37463 22.8227 6.0564 24.3597 7.02962 25.7043C8.00313 27.049 9.22992 28.1857 10.7115 29.1141C12.1922 30.0419 13.8196 30.683 15.5933 31.0359C17.3984 31.395 19.1512 31.4263 20.853 31.1315C22.554 30.8364 24.1135 30.2539 25.5314 29.3849C26.9488 28.5159 28.1597 27.3555 29.164 25.9039C30.1675 24.4522 30.8595 22.7467 31.2384 20.7869C31.6171 18.8276 31.6097 16.991 31.2179 15.2781" fill="#D56062"/>
</svg>

<svg width="36" height="66" fill="none" xmlns="http://www.w3.org/2000/svg"><path d="M35.5 18.26c0 2.499-.16 4.353-.63 6.316-.47 1.97-1.26 4.068-2.544 7.052-.722 1.679-1.599 3.635-2.659 5.998-2.625 5.854-6.372 14.21-11.667 27.06-5.295-12.85-9.042-21.206-11.667-27.06-1.06-2.363-1.937-4.32-2.66-5.998-1.283-2.984-2.072-5.082-2.544-7.052C.66 22.613.5 20.759.5 18.26.5 8.445 8.342.5 18 .5c9.658 0 17.5 7.945 17.5 17.76Z" fill="#D56062" stroke="#C65658"/><ellipse cx="18" cy="18.261" rx="15.429" ry="15.652" fill="#fff"/><path d="M28.694 19.657c-.234.058-.426-.025-.582-.204a.942.942 0 0 1-.087-.122.81.81 0 0 0-.448-.35 15.19 15.19 0 0 0-.623-.188 1.167 1.167 0 0 1-.277-.103c-.165-.097-.205-.256-.106-.422a.64.64 0 0 1 .36-.272c.294-.103.59-.095.897-.024.484.073.854.352 1.168.722.11.131.191.28.181.463-.016.294-.27.446-.483.5Zm-2.056 2.655a9.609 9.609 0 0 1-2.358 2.704c-2.206 1.751-5.088 2.549-7.853 2.01-1.656-.323-3.23-1.078-4.56-2.16-1.407-1.143-2.42-2.69-3.031-4.402-.048-.135-.095-.28-.066-.42.165-.793 1.494-.1 1.912.037 3.547 1.152 7.59 1.003 11.257.68.92-.081 1.87-.277 2.765-.567.46-.149.911-.323 1.352-.52.38-.17.875-.57 1.304-.336.751.409-.44 2.487-.722 2.974ZM8.15 19.773c-.04.03-.078.063-.121.085-.206.109-.428.012-.496-.213a.564.564 0 0 1-.012-.274 1.42 1.42 0 0 1 .379-.711 1.64 1.64 0 0 1 .562-.41c.358-.152.735-.233 1.127-.17.186.03.348.11.448.286a.433.433 0 0 1-.024.494.84.84 0 0 1-.538.343c-.097.02-.195.033-.293.046-.27.038-.513.14-.734.301-.1.073-.198.15-.298.223Zm3.562-6.501a.52.52 0 0 1 .714-.207l.072.041c.156.088.307.187.462.268l.234.102.116.053.118.031c.079.02.156.044.233.067.078.008.155.017.232.028.078.018.154.004.23.003l.113-.002c.038-.002.074-.015.112-.02a2.29 2.29 0 0 0 .873-.333 3.306 3.306 0 0 0 .747-.66l.043-.049a.52.52 0 0 1 .675-.098c.245.157.319.487.164.736a3.412 3.412 0 0 1-.445.575c-.16.172-.338.33-.53.473-.385.283-.853.5-1.356.563-.062.008-.124.02-.187.023h-.19c-.125-.002-.252.005-.373-.021l-.366-.063a8.523 8.523 0 0 1-.345-.115l-.17-.06-.156-.082-.311-.163c-.193-.125-.371-.265-.555-.398a.537.537 0 0 1-.154-.692Zm8.67-.662a.501.501 0 0 1 .696.162l.04.064c.094.153.18.315.278.463l.163.205.08.102.094.085.183.17.201.134c.064.052.14.075.21.11l.107.05c.036.015.075.021.113.033.296.087.625.125.946.027.158-.05.322-.072.487-.116.083-.018.165-.04.248-.061.079-.02.174-.047.233-.056l.142-.02a.498.498 0 0 1 .465.194.513.513 0 0 1-.092.713 2.42 2.42 0 0 1-.63.363c-.218.088-.45.151-.69.165-.119.01-.241 0-.36.005-.12-.002-.243-.011-.364-.016a2.995 2.995 0 0 1-.72-.155c-.058-.02-.118-.036-.174-.061l-.166-.083c-.11-.057-.225-.106-.32-.183l-.296-.215-.256-.252-.126-.127-.106-.14-.21-.278c-.125-.192-.23-.391-.344-.588a.518.518 0 0 1 .167-.694Zm10.836 2.668c-.393-1.712-1.085-3.235-2.077-4.567a12.916 12.916 0 0 0-3.696-3.337c-1.472-.893-3.11-1.52-4.915-1.879a15.016 15.016 0 0 0-5.226-.138c-1.712.26-3.266.818-4.665 1.674s-2.599 2.002-3.6 3.437c-1 1.436-1.69 3.134-2.069 5.093-.379 1.96-.374 3.804.016 5.533.389 1.729 1.07 3.266 2.044 4.61.973 1.345 2.2 2.482 3.681 3.41a14.405 14.405 0 0 0 4.882 1.922c1.805.359 3.558.39 5.26.095a13.175 13.175 0 0 0 4.678-1.746c1.418-.87 2.629-2.03 3.633-3.481 1.003-1.452 1.695-3.157 2.074-5.117.38-1.96.372-3.796-.02-5.509" fill="#D56062"/></svg>
